X: 06073
T: PEERY ALY
C: Bob McQuillen 12 May 82
B: Bob's Note Book 6 #73
%R: reel
Z: 2021 John Chambers <jc:trillian.mit.edu>
M: C
L: 1/8
K: D
A,B, \
| D2DF AFED | FAFD B,A,DE | FABA d2cd | e2E2 E2FE |\
| DFEF A2FE | DFED B,A,DE | FABd efde | f2d2 d2 :|
|: AB \
| d2fe dBAB | defa f2af | e2df edfe | d2B2 BAFA |\
| d2BA FABd | e2fe dBde | fdBd AFBA | F2D2 D2 :|
%%begintext align
%% I told him I
%% was going to write this tune, just for hm, so
%% here it is - But I'll let him tell you about it.
%% (D'you suppose they'll like it in Lerwick?)
%%endtext

%%sep 1 1 500

%%sep 1 1 500

